X:35
C:Page 17
T:High Dance. MBe.35
S:Matthew Betham MS, Towcett Cumbria, 1815
O:England;Cumbria;Towcett
Z:VMP – Hugh Taylor, 2012
M:6/8
L:1/8
Q:3/8=120
R:.Jig
N:The A part is on page 17, and the B part follows on page 18.
K:G
d|dgd ege|dBG G2 B|A2 B GDG|A2 B A2 d|
dgd ege|dBG G2 B|A2 B GDG|A2 B G2:|
|:d|{dg}} b2 g dBd|e2 g B3|cde G2 G|A2 B D2 d|
{dg} b2 g dBd|e2 g B3|cde dBG|cAF!fermata!G2:|

